Papirus/32x32/places/folder-mega.svg

<?xml version="1.0" encoding="UTF-8" standalone="no"?>
<svg xmlns="http://www.w3.org/2000/svg" height="32" width="32" version="1">
 <path style="opacity:0.2;fill:#000000;fill-opacity:1" d="m 28,26.75055 0,-13.49477 c 0,-0.69222 -0.56175,-1.32597 -1.25,-1.2495 l -10,0 -2.25,2.1e-4 -10.25,0 C 3,12.00649 3,13.20396 3,13.20396 L 3,26.7505 C 3,27.44272 3.5575,28 4.25,28 l 22.5,0 C 27.4425,28 28,27.44272 28,26.7505 Z"/>
 <path d="M 3,23.75027 3,7 C 3,6 3,5 4,5 l 9,0 c 1,0 1,1 1,2.0001 l 12.814,0 c 0,0 1.1859,0.006 1.1859,1.2558 l 0,15.49452 C 27.9999,24.44266 27.4424,25 26.7499,25 L 4.2504,25 c -0.6925,0 -1.25,-0.55729 -1.25,-1.24958 z" style="fill:#4877b1;fill-opacity:1"/>
 <path style="opacity:0.2;fill:#000000;fill-opacity:1" d="m 28,24.75055 0,-13.49477 c 0,-0.69222 -0.56175,-1.32597 -1.25,-1.2495 l -10,0 -2.25,2.1e-4 -10.25,0 C 3,10.00649 3,11.20396 3,11.20396 L 3,24.7505 C 3,25.44272 3.5575,26 4.25,26 l 22.5,0 C 27.4425,26 28,25.44272 28,24.7505 Z"/>
 <rect style="opacity:1;fill:#dcdcdc;fill-opacity:1;" width="21" height="10" x="5" y="9" ry="1.25" rx="1.167"/>
 <path d="m 28,25.75055 0,-13.49477 c 0,-0.69222 -0.56175,-1.32597 -1.25,-1.2495 l -10,0 -2.25,2.1e-4 -10.25,0 C 3,11.00649 3,12.20396 3,12.20396 L 3,25.7505 C 3,26.44272 3.5575,27 4.25,27 l 22.5,0 C 27.4425,27 28,26.44272 28,25.7505 Z" style="fill:#5294e2;fill-opacity:1"/>
 <path style="opacity:0.1;fill:#ffffff;fill-opacity:1" d="M 4,5 C 3,5 3,6 3,7 L 3,8 C 3,7 3,6 4,6 l 9,0 c 1,0 1,0.9999 1,2 L 26.81445,8 C 26.81445,8 28,8.006 28,9.25586 l 0,-1 C 28,7.00606 26.81445,7 26.81445,7 L 14,7 C 14,5.9999 14,5 13,5 L 4,5 Z"/>
 <path style="opacity:0.65" d="m 16,13 a 6,6 0 0 0 -6,6 6,6 0 0 0 6,6 6,6 0 0 0 6,-6 6,6 0 0 0 -6,-6 z m -3,3 2,0 0,0.004 1,0.996 1,-1 2,0 0,6 -2,0 0,-3 -1,1 -1,-1 0,3 -2,0 0,-6 z"/>
</svg>

<svg xmlns="http://www.w3.org/2000/svg" width="32" height="32" version="1">
 <rect style="opacity:0.2" width="25" height="16" x="3" y="12" rx="1.25" ry="1.25"/>
 <path style="fill:#4877b1" d="M 3,21.75 C 3,22.442 3.5575,23 4.25,23 H 26.75 C 27.442,23 28,22.442 28,21.75 V 8.25 C 28,7.5575 27.442,7 26.75,7 H 14 V 6.25 C 14,5.5575 13.443,5 12.75,5 H 4.25 C 3.5575,5 3,5.5575 3,6.25"/>
 <rect style="opacity:0.2" width="25" height="16" x="3" y="10" rx="1.25" ry="1.25"/>
 <rect style="fill:#dcdcdc" width="21" height="10" x="5" y="9" rx="1.25" ry="1.25"/>
 <rect style="fill:#5294e2" width="25" height="16" x="3" y="11" rx="1.25" ry="1.25"/>
 <path style="opacity:0.1;fill:#ffffff" d="M 4.25 5 C 3.5575 5 3 5.5575 3 6.25 L 3 7.25 C 3 6.5575 3.5575 6 4.25 6 L 12.75 6 C 13.443 6 14 6.5575 14 7.25 L 14 8 L 26.75 8 C 27.442 8 28 8.5575 28 9.25 L 28 8.25 C 28 7.5575 27.442 7 26.75 7 L 14 7 L 14 6.25 C 14 5.5575 13.443 5 12.75 5 L 4.25 5 z"/>
 <path style="opacity:0.65" d="M 16,13 C 12.686,13 10,15.686 10,19 10,22.314 12.686,25 16,25 19.314,25 22,22.314 22,19 22,15.686 19.314,13 16,13 Z M 13,16 H 15 V 16 L 16,17 17,16 H 19 V 22 H 17 V 19 L 16,20 15,19 V 22 H 13 Z"/>
</svg>
